X: 19511
T: Jacky's
R: reel
M: 4/4
K: Eminor
|:"Em"e2B2"Bm"f2B2|"B" gf e^d"Em"e2B2|"Em" e2b2"Am"2c'2a2|"B" g2f2e2^d2|
"Em"e2B2"Am"c2A2|"E7"^GAB2E2d2|"Am"c2BA "E"^GA B2|1 "E"E2^G2"Am"A4:|2 "E"E2 ^G2"Am"A2 cB||
|:"D7"c2FEF2d2|"G"B2A2G2ef|"Em"g2fe "B"^def2|"B7"B2^d2"Em"e4|
"D7"dc BA"G"G2D2|"D"A2 D2"G"B2G2|"Am"E2A2"B"G2F2|1 "Em" E3cB:|2 "Em"E4||

